src/assets/filled/Component.svg

<svg width="24" height="24" viewBox="0 0 24 24"  xmlns="http://www.w3.org/2000/svg">
<path d="M20.95 14.55L14.56 20.94C13.16 22.34 10.86 22.34 9.45001 20.94L3.06001 14.55C1.66001 13.15 1.66001 10.85 3.06001 9.44L9.45001 3.05C10.85 1.65 13.15 1.65 14.56 3.05L20.95 9.44C22.35 10.85 22.35 13.15 20.95 14.55Z" />
</svg>

<?xml version="1.0" encoding="UTF-8"?>
<svg width="24" height="24" viewBox="0 0 24 24" xmlns="http://www.w3.org/2000/svg">
 <path d="m20.95 14.55-6.39 6.39c-1.4 1.4-3.7 1.4-5.11 0l-6.39-6.39c-1.4-1.4-1.4-3.7 0-5.11l6.39-6.39c1.4-1.4 3.7-1.4 5.11 0l6.39 6.39c1.4 1.41 1.4 3.71 0 5.11z"/>
</svg>
